html/app/assets/img/ui/review-4stars.svg

<svg fill="none" height="17" viewBox="0 0 102 17" width="102" xmlns="http://www.w3.org/2000/svg"><g stroke="#222" stroke-linecap="round" stroke-linejoin="round" stroke-width="1.5"><path d="m92.3911 1.69908c.1957-.3963.2935-.59446.4263-.65777.1155-.055081.2497-.055081.3652 0 .1328.06331.2306.26147.4263.65777l1.8559 3.75987c.0577.117.0866.1755.1288.22092.0374.04021.0822.0728.1319.09594.0563.02615.1208.03558.2499.05445l4.1516.60679c.437.0639.656.09585.757.20262.088.0929.129.22055.112.34742-.019.14581-.177.29995-.494.60821l-3.0025 2.9248c-.0936.0911-.1404.1367-.1706.191-.0267.048-.0439.1008-.0505.1553-.0075.0617.0036.1261.0256.2548l.7086 4.1312c.0747.4357.1121.6535.0419.7828-.0611.1125-.1697.1914-.2956.2147-.1447.0268-.3403-.076-.7316-.2818l-3.7113-1.9517c-.1156-.0609-.1734-.0913-.2343-.1032-.054-.0106-.1094-.0106-.1634 0-.0609.0119-.1187.0423-.2343.1032l-3.7113 1.9517c-.3913.2058-.5869.3086-.7316.2818-.1259-.0233-.2345-.1022-.2956-.2147-.0702-.1293-.0328-.3471.0419-.7828l.7086-4.1312c.022-.1287.0331-.1931.0256-.2548-.0066-.0545-.0238-.1073-.0505-.1553-.0302-.0543-.077-.0999-.1706-.191l-3.0029-2.9248c-.3164-.30826-.4747-.4624-.4939-.60821-.0168-.12687.0246-.25452.1126-.34742.1012-.10677.3197-.13872.7569-.20262l4.1514-.60679c.1291-.01887.1936-.0283.2499-.05445.0497-.02314.0945-.05573.1319-.09594.0422-.04542.0711-.10392.1288-.22092z"/><g fill="#fffa66"><path d="m8.39115 1.69908c.19562-.3963.29343-.59446.42621-.65777.11553-.055081.24975-.055081.36528 0 .13278.06331.23059.26147.42621.65777l1.85595 3.75987c.0577.117.0866.1755.1288.22092.0374.04021.0822.0728.1319.09594.0563.02615.1208.03558.2499.05445l4.1514.60679c.4372.0639.6557.09585.7569.20262.088.0929.1294.22055.1126.34742-.0192.14581-.1775.29995-.4939.60821l-3.0029 2.9248c-.0936.0911-.1404.1367-.1706.191-.0267.048-.0439.1008-.0505.1553-.0075.0617.0036.1261.0256.2548l.7086 4.1312c.0747.4357.1121.6535.0419.7828-.0611.1125-.1697.1914-.2956.2147-.1447.0268-.3403-.076-.7316-.2818l-3.71126-1.9517c-.11564-.0609-.17346-.0913-.23437-.1032-.05393-.0106-.10941-.0106-.16334 0-.06091.0119-.11873.0423-.23436.1032l-3.71129 1.9517c-.39128.2058-.58691.3086-.73157.2818-.12586-.0233-.23446-.1022-.29556-.2147-.07022-.1293-.03286-.3471.04187-.7828l.70854-4.1312c.02209-.1287.03313-.1931.02566-.2548-.00662-.0545-.02377-.1073-.05051-.1553-.03021-.0543-.07701-.0999-.17062-.191l-3.00284-2.9248c-.31649-.30826-.47474-.4624-.49399-.60821-.016758-.12687.02463-.25452.11264-.34742.10116-.10677.31974-.13872.7569-.20262l4.15139-.60679c.1291-.01887.19365-.0283.24987-.05445.04977-.02314.09459-.05573.13195-.09594.0422-.04542.07108-.10392.12883-.22092z"/><path d="m29.3911 1.69908c.1957-.3963.2935-.59446.4263-.65777.1155-.055081.2497-.055081.3652 0 .1328.06331.2306.26147.4263.65777l1.8559 3.75987c.0577.117.0866.1755.1288.22092.0374.04021.0822.0728.1319.09594.0563.02615.1208.03558.2499.05445l4.1514.60679c.4372.0639.6557.09585.7569.20262.088.0929.1294.22055.1126.34742-.0192.14581-.1775.29995-.4939.60821l-3.0029 2.9248c-.0936.0911-.1404.1367-.1706.191-.0267.048-.0439.1008-.0505.1553-.0075.0617.0036.1261.0256.2548l.7086 4.1312c.0747.4357.1121.6535.0419.7828-.0611.1125-.1697.1914-.2956.2147-.1447.0268-.3403-.076-.7316-.2818l-3.7113-1.9517c-.1156-.0609-.1734-.0913-.2343-.1032-.054-.0106-.1094-.0106-.1634 0-.0609.0119-.1187.0423-.2343.1032l-3.7113 1.9517c-.3913.2058-.5869.3086-.7316.2818-.1259-.0233-.2345-.1022-.2956-.2147-.0702-.1293-.0328-.3471.0419-.7828l.7086-4.1312c.022-.1287.0331-.1931.0256-.2548-.0066-.0545-.0238-.1073-.0505-.1553-.0302-.0543-.077-.0999-.1706-.191l-3.0029-2.9248c-.3164-.30826-.4747-.4624-.4939-.60821-.0168-.12687.0246-.25452.1126-.34742.1012-.10677.3197-.13872.7569-.20262l4.1514-.60679c.1291-.01887.1936-.0283.2499-.05445.0497-.02314.0945-.05573.1319-.09594.0422-.04542.0711-.10392.1288-.22092z"/><path d="m50.3911 1.69908c.1957-.3963.2935-.59446.4263-.65777.1155-.055081.2497-.055081.3652 0 .1328.06331.2306.26147.4263.65777l1.8559 3.75987c.0577.117.0866.1755.1288.22092.0374.04021.0822.0728.1319.09594.0563.02615.1208.03558.2499.05445l4.1514.60679c.4372.0639.6557.09585.7569.20262.088.0929.1294.22055.1126.34742-.0192.14581-.1775.29995-.4939.60821l-3.0029 2.9248c-.0936.0911-.1404.1367-.1706.191-.0267.048-.0439.1008-.0505.1553-.0075.0617.0036.1261.0256.2548l.7086 4.1312c.0747.4357.1121.6535.0419.7828-.0611.1125-.1697.1914-.2956.2147-.1447.0268-.3403-.076-.7316-.2818l-3.7113-1.9517c-.1156-.0609-.1734-.0913-.2343-.1032-.054-.0106-.1094-.0106-.1634 0-.0609.0119-.1187.0423-.2343.1032l-3.7113 1.9517c-.3913.2058-.5869.3086-.7316.2818-.1259-.0233-.2345-.1022-.2956-.2147-.0702-.1293-.0328-.3471.0419-.7828l.7086-4.1312c.022-.1287.0331-.1931.0256-.2548-.0066-.0545-.0238-.1073-.0505-.1553-.0302-.0543-.077-.0999-.1706-.191l-3.0029-2.9248c-.3164-.30826-.4747-.4624-.4939-.60821-.0168-.12687.0246-.25452.1126-.34742.1012-.10677.3197-.13872.7569-.20262l4.1514-.60679c.1291-.01887.1936-.0283.2499-.05445.0497-.02314.0945-.05573.1319-.09594.0422-.04542.0711-.10392.1288-.22092z"/><path d="m71.3911 1.69908c.1957-.3963.2935-.59446.4263-.65777.1155-.055081.2497-.055081.3652 0 .1328.06331.2306.26147.4263.65777l1.8559 3.75987c.0577.117.0866.1755.1288.22092.0374.04021.0822.0728.1319.09594.0563.02615.1208.03558.2499.05445l4.1514.60679c.4372.0639.6557.09585.7569.20262.088.0929.1294.22055.1126.34742-.0192.14581-.1775.29995-.4939.60821l-3.0029 2.9248c-.0936.0911-.1404.1367-.1706.191-.0267.048-.0439.1008-.0505.1553-.0075.0617.0036.1261.0256.2548l.7086 4.1312c.0747.4357.1121.6535.0419.7828-.0611.1125-.1697.1914-.2956.2147-.1447.0268-.3403-.076-.7316-.2818l-3.7113-1.9517c-.1156-.0609-.1734-.0913-.2343-.1032-.054-.0106-.1094-.0106-.1634 0-.0609.0119-.1187.0423-.2343.1032l-3.7113 1.9517c-.3913.2058-.5869.3086-.7316.2818-.1259-.0233-.2345-.1022-.2956-.2147-.0702-.1293-.0328-.3471.0419-.7828l.7086-4.1312c.022-.1287.0331-.1931.0256-.2548-.0066-.0545-.0238-.1073-.0505-.1553-.0302-.0543-.077-.0999-.1706-.191l-3.0029-2.9248c-.3164-.30826-.4747-.4624-.4939-.60821-.0168-.12687.0246-.25452.1126-.34742.1012-.10677.3197-.13872.7569-.20262l4.1514-.60679c.1291-.01887.1936-.0283.2499-.05445.0497-.02314.0945-.05573.1319-.09594.0422-.04542.0711-.10392.1288-.22092z"/></g></g></svg>

<svg width="102" height="17" viewBox="0 0 102 17" fill="none" xmlns="http://www.w3.org/2000/svg">
<path d="M92.3911 1.69908C92.5868 1.30278 92.6846 1.10462 92.8174 1.04131C92.9329 0.986229 93.0671 0.986229 93.1826 1.04131C93.3154 1.10462 93.4132 1.30278 93.6089 1.69908L95.4648 5.45895C95.5225 5.57595 95.5514 5.63445 95.5936 5.67987C95.631 5.72008 95.6758 5.75267 95.7255 5.77581C95.7818 5.80196 95.8463 5.81139 95.9754 5.83026L100.127 6.43705C100.564 6.50095 100.783 6.5329 100.884 6.63967C100.972 6.73257 101.013 6.86022 100.996 6.98709C100.977 7.1329 100.819 7.28704 100.502 7.5953L97.4995 10.5201C97.4059 10.6112 97.3591 10.6568 97.3289 10.7111C97.3022 10.7591 97.285 10.8119 97.2784 10.8664C97.2709 10.9281 97.282 10.9925 97.304 11.1212L98.0126 15.2524C98.0873 15.6881 98.1247 15.9059 98.0545 16.0352C97.9934 16.1477 97.8848 16.2266 97.7589 16.2499C97.6142 16.2767 97.4186 16.1739 97.0273 15.9681L93.316 14.0164C93.2004 13.9555 93.1426 13.9251 93.0817 13.9132C93.0277 13.9026 92.9723 13.9026 92.9183 13.9132C92.8574 13.9251 92.7996 13.9555 92.684 14.0164L88.9727 15.9681C88.5814 16.1739 88.3858 16.2767 88.2411 16.2499C88.1152 16.2266 88.0066 16.1477 87.9455 16.0352C87.8753 15.9059 87.9127 15.6881 87.9874 15.2524L88.696 11.1212C88.718 10.9925 88.7291 10.9281 88.7216 10.8664C88.715 10.8119 88.6978 10.7591 88.6711 10.7111C88.6409 10.6568 88.5941 10.6112 88.5005 10.5201L85.4976 7.5953C85.1812 7.28704 85.0229 7.1329 85.0037 6.98709C84.9869 6.86022 85.0283 6.73257 85.1163 6.63967C85.2175 6.5329 85.436 6.50095 85.8732 6.43705L90.0246 5.83026C90.1537 5.81139 90.2182 5.80196 90.2745 5.77581C90.3242 5.75267 90.369 5.72008 90.4064 5.67987C90.4486 5.63445 90.4775 5.57595 90.5352 5.45895L92.3911 1.69908Z" stroke="#222222" stroke-width="1.5" stroke-linecap="round" stroke-linejoin="round"/>
<path d="M8.39115 1.69908C8.58677 1.30278 8.68458 1.10462 8.81736 1.04131C8.93289 0.986229 9.06711 0.986229 9.18264 1.04131C9.31542 1.10462 9.41323 1.30278 9.60885 1.69908L11.4648 5.45895C11.5225 5.57595 11.5514 5.63445 11.5936 5.67987C11.631 5.72008 11.6758 5.75267 11.7255 5.77581C11.7818 5.80196 11.8463 5.81139 11.9754 5.83026L16.1268 6.43705C16.564 6.50095 16.7825 6.5329 16.8837 6.63967C16.9717 6.73257 17.0131 6.86022 16.9963 6.98709C16.9771 7.1329 16.8188 7.28704 16.5024 7.5953L13.4995 10.5201C13.4059 10.6112 13.3591 10.6568 13.3289 10.7111C13.3022 10.7591 13.285 10.8119 13.2784 10.8664C13.2709 10.9281 13.282 10.9925 13.304 11.1212L14.0126 15.2524C14.0873 15.6881 14.1247 15.9059 14.0545 16.0352C13.9934 16.1477 13.8848 16.2266 13.7589 16.2499C13.6142 16.2767 13.4186 16.1739 13.0273 15.9681L9.31604 14.0164C9.2004 13.9555 9.14258 13.9251 9.08167 13.9132C9.02774 13.9026 8.97226 13.9026 8.91833 13.9132C8.85742 13.9251 8.7996 13.9555 8.68397 14.0164L4.97268 15.9681C4.5814 16.1739 4.38577 16.2767 4.24111 16.2499C4.11525 16.2266 4.00665 16.1477 3.94555 16.0352C3.87533 15.9059 3.91269 15.6881 3.98742 15.2524L4.69596 11.1212C4.71805 10.9925 4.72909 10.9281 4.72162 10.8664C4.715 10.8119 4.69785 10.7591 4.67111 10.7111C4.6409 10.6568 4.5941 10.6112 4.50049 10.5201L1.49765 7.5953C1.18116 7.28704 1.02291 7.1329 1.00366 6.98709C0.986902 6.86022 1.02829 6.73257 1.1163 6.63967C1.21746 6.5329 1.43604 6.50095 1.8732 6.43705L6.02459 5.83026C6.15369 5.81139 6.21824 5.80196 6.27446 5.77581C6.32423 5.75267 6.36905 5.72008 6.40641 5.67987C6.44861 5.63445 6.47749 5.57595 6.53524 5.45895L8.39115 1.69908Z" fill="#FFFA66" stroke="#222222" stroke-width="1.5" stroke-linecap="round" stroke-linejoin="round"/>
<path d="M29.3911 1.69908C29.5868 1.30278 29.6846 1.10462 29.8174 1.04131C29.9329 0.986229 30.0671 0.986229 30.1826 1.04131C30.3154 1.10462 30.4132 1.30278 30.6089 1.69908L32.4648 5.45895C32.5225 5.57595 32.5514 5.63445 32.5936 5.67987C32.631 5.72008 32.6758 5.75267 32.7255 5.77581C32.7818 5.80196 32.8463 5.81139 32.9754 5.83026L37.1268 6.43705C37.564 6.50095 37.7825 6.5329 37.8837 6.63967C37.9717 6.73257 38.0131 6.86022 37.9963 6.98709C37.9771 7.1329 37.8188 7.28704 37.5024 7.5953L34.4995 10.5201C34.4059 10.6112 34.3591 10.6568 34.3289 10.7111C34.3022 10.7591 34.285 10.8119 34.2784 10.8664C34.2709 10.9281 34.282 10.9925 34.304 11.1212L35.0126 15.2524C35.0873 15.6881 35.1247 15.9059 35.0545 16.0352C34.9934 16.1477 34.8848 16.2266 34.7589 16.2499C34.6142 16.2767 34.4186 16.1739 34.0273 15.9681L30.316 14.0164C30.2004 13.9555 30.1426 13.9251 30.0817 13.9132C30.0277 13.9026 29.9723 13.9026 29.9183 13.9132C29.8574 13.9251 29.7996 13.9555 29.684 14.0164L25.9727 15.9681C25.5814 16.1739 25.3858 16.2767 25.2411 16.2499C25.1152 16.2266 25.0066 16.1477 24.9455 16.0352C24.8753 15.9059 24.9127 15.6881 24.9874 15.2524L25.696 11.1212C25.718 10.9925 25.7291 10.9281 25.7216 10.8664C25.715 10.8119 25.6978 10.7591 25.6711 10.7111C25.6409 10.6568 25.5941 10.6112 25.5005 10.5201L22.4976 7.5953C22.1812 7.28704 22.0229 7.1329 22.0037 6.98709C21.9869 6.86022 22.0283 6.73257 22.1163 6.63967C22.2175 6.5329 22.436 6.50095 22.8732 6.43705L27.0246 5.83026C27.1537 5.81139 27.2182 5.80196 27.2745 5.77581C27.3242 5.75267 27.369 5.72008 27.4064 5.67987C27.4486 5.63445 27.4775 5.57595 27.5352 5.45895L29.3911 1.69908Z" fill="#FFFA66" stroke="#222222" stroke-width="1.5" stroke-linecap="round" stroke-linejoin="round"/>
<path d="M50.3911 1.69908C50.5868 1.30278 50.6846 1.10462 50.8174 1.04131C50.9329 0.986229 51.0671 0.986229 51.1826 1.04131C51.3154 1.10462 51.4132 1.30278 51.6089 1.69908L53.4648 5.45895C53.5225 5.57595 53.5514 5.63445 53.5936 5.67987C53.631 5.72008 53.6758 5.75267 53.7255 5.77581C53.7818 5.80196 53.8463 5.81139 53.9754 5.83026L58.1268 6.43705C58.564 6.50095 58.7825 6.5329 58.8837 6.63967C58.9717 6.73257 59.0131 6.86022 58.9963 6.98709C58.9771 7.1329 58.8188 7.28704 58.5024 7.5953L55.4995 10.5201C55.4059 10.6112 55.3591 10.6568 55.3289 10.7111C55.3022 10.7591 55.285 10.8119 55.2784 10.8664C55.2709 10.9281 55.282 10.9925 55.304 11.1212L56.0126 15.2524C56.0873 15.6881 56.1247 15.9059 56.0545 16.0352C55.9934 16.1477 55.8848 16.2266 55.7589 16.2499C55.6142 16.2767 55.4186 16.1739 55.0273 15.9681L51.316 14.0164C51.2004 13.9555 51.1426 13.9251 51.0817 13.9132C51.0277 13.9026 50.9723 13.9026 50.9183 13.9132C50.8574 13.9251 50.7996 13.9555 50.684 14.0164L46.9727 15.9681C46.5814 16.1739 46.3858 16.2767 46.2411 16.2499C46.1152 16.2266 46.0066 16.1477 45.9455 16.0352C45.8753 15.9059 45.9127 15.6881 45.9874 15.2524L46.696 11.1212C46.718 10.9925 46.7291 10.9281 46.7216 10.8664C46.715 10.8119 46.6978 10.7591 46.6711 10.7111C46.6409 10.6568 46.5941 10.6112 46.5005 10.5201L43.4976 7.5953C43.1812 7.28704 43.0229 7.1329 43.0037 6.98709C42.9869 6.86022 43.0283 6.73257 43.1163 6.63967C43.2175 6.5329 43.436 6.50095 43.8732 6.43705L48.0246 5.83026C48.1537 5.81139 48.2182 5.80196 48.2745 5.77581C48.3242 5.75267 48.369 5.72008 48.4064 5.67987C48.4486 5.63445 48.4775 5.57595 48.5352 5.45895L50.3911 1.69908Z" fill="#FFFA66" stroke="#222222" stroke-width="1.5" stroke-linecap="round" stroke-linejoin="round"/>
<path d="M71.3911 1.69908C71.5868 1.30278 71.6846 1.10462 71.8174 1.04131C71.9329 0.986229 72.0671 0.986229 72.1826 1.04131C72.3154 1.10462 72.4132 1.30278 72.6089 1.69908L74.4648 5.45895C74.5225 5.57595 74.5514 5.63445 74.5936 5.67987C74.631 5.72008 74.6758 5.75267 74.7255 5.77581C74.7818 5.80196 74.8463 5.81139 74.9754 5.83026L79.1268 6.43705C79.564 6.50095 79.7825 6.5329 79.8837 6.63967C79.9717 6.73257 80.0131 6.86022 79.9963 6.98709C79.9771 7.1329 79.8188 7.28704 79.5024 7.5953L76.4995 10.5201C76.4059 10.6112 76.3591 10.6568 76.3289 10.7111C76.3022 10.7591 76.285 10.8119 76.2784 10.8664C76.2709 10.9281 76.282 10.9925 76.304 11.1212L77.0126 15.2524C77.0873 15.6881 77.1247 15.9059 77.0545 16.0352C76.9934 16.1477 76.8848 16.2266 76.7589 16.2499C76.6142 16.2767 76.4186 16.1739 76.0273 15.9681L72.316 14.0164C72.2004 13.9555 72.1426 13.9251 72.0817 13.9132C72.0277 13.9026 71.9723 13.9026 71.9183 13.9132C71.8574 13.9251 71.7996 13.9555 71.684 14.0164L67.9727 15.9681C67.5814 16.1739 67.3858 16.2767 67.2411 16.2499C67.1152 16.2266 67.0066 16.1477 66.9455 16.0352C66.8753 15.9059 66.9127 15.6881 66.9874 15.2524L67.696 11.1212C67.718 10.9925 67.7291 10.9281 67.7216 10.8664C67.715 10.8119 67.6978 10.7591 67.6711 10.7111C67.6409 10.6568 67.5941 10.6112 67.5005 10.5201L64.4976 7.5953C64.1812 7.28704 64.0229 7.1329 64.0037 6.98709C63.9869 6.86022 64.0283 6.73257 64.1163 6.63967C64.2175 6.5329 64.436 6.50095 64.8732 6.43705L69.0246 5.83026C69.1537 5.81139 69.2182 5.80196 69.2745 5.77581C69.3242 5.75267 69.369 5.72008 69.4064 5.67987C69.4486 5.63445 69.4775 5.57595 69.5352 5.45895L71.3911 1.69908Z" fill="#FFFA66" stroke="#222222" stroke-width="1.5" stroke-linecap="round" stroke-linejoin="round"/>
</svg>
